X: 02074
T: MA 'N PAPPY'S REEL
C: Bob McQuillen Feb'74
B: Bob's Note Book 1&2 #74
R: reel
Z: 2019 John Chambers <jc:trillian.mit.edu>
M: C
L: 1/8
K: D
AG \
| FDFG Adcd | edcd BdcB | ABAG FAGF | G2E2 E2AG |
| FDFG Adcd | efed BcdB | AdcB AGFE | F2D2 D2  :|
|: DE \
| F2A2 A2AB | AFEG FDDE | F2A2 A2AB | AFDF E2DE |
| F2A2 A2AB | AFEG FDDE | FAdB ABAG | FDEC D2  :|
%%begintext align
%% With love to my in-laws,
%% Glen & Helen Scribner.
%%endtext

%%sep 1 1 500

%%sep 1 1 500

